public/assets/standards/soft/github-repo-icon.svg

<svg width="24" height="25" viewBox="0 0 24 25" fill="none" xmlns="http://www.w3.org/2000/svg">
    <path
        d="M15 22.6255V18.6255C15.1392 17.3728 14.78 16.1156 14 15.1255C17 15.1255 20 13.1255 20 9.62549C20.08 8.37549 19.73 7.14549 19 6.12549C19.28 4.97549 19.28 3.77549 19 2.62549C19 2.62549 18 2.62549 16 4.12549C13.36 3.62549 10.64 3.62549 8.00004 4.12549C6.00004 2.62549 5.00004 2.62549 5.00004 2.62549C4.70004 3.77549 4.70004 4.97549 5.00004 6.12549C4.27191 7.14137 3.91851 8.37827 4.00004 9.62549C4.00004 13.1255 7.00004 15.1255 10 15.1255C9.61004 15.6155 9.32004 16.1755 9.15004 16.7755C8.98004 17.3755 8.93004 18.0055 9.00004 18.6255V22.6255"
        stroke="#006D69" stroke-width="2" stroke-linecap="round" stroke-linejoin="round" />
    <path d="M9 18.6255C4.49 20.6255 4 16.6255 2 16.6255" stroke="#006D69" stroke-width="2" stroke-linecap="round"
        stroke-linejoin="round" />
</svg>

<svg xmlns="http://www.w3.org/2000/svg" width="24" height="25" fill="none" viewBox="0 0 24 25"><path stroke="#006d69" stroke-linecap="round" stroke-linejoin="round" stroke-width="2" d="M15 22.626v-4a4.8 4.8 0 0 0-1-3.5c3 0 6-2 6-5.5.08-1.25-.27-2.48-1-3.5.28-1.15.28-2.35 0-3.5 0 0-1 0-3 1.5-2.64-.5-5.36-.5-8 0-2-1.5-3-1.5-3-1.5-.3 1.15-.3 2.35 0 3.5a5.4 5.4 0 0 0-1 3.5c0 3.5 3 5.5 6 5.5-.39.49-.68 1.05-.85 1.65s-.22 1.23-.15 1.85v4"/><path stroke="#006d69" stroke-linecap="round" stroke-linejoin="round" stroke-width="2" d="M9 18.626c-4.51 2-5-2-7-2"/></svg>
